dist/img/svg/wa.svg

<svg width="24" height="24" viewBox="0 0 24 24" fill="none" xmlns="http://www.w3.org/2000/svg">
<path d="M17.6683 6.32804C16.9311 5.58732 16.0531 5.00001 15.0854 4.60033C14.1178 4.20065 13.0799 3.99659 12.0322 4.00004C7.64221 4.00004 4.06432 7.56003 4.06432 11.928C4.06432 13.328 4.43417 14.688 5.12563 15.888L4 20L8.22111 18.896C9.38693 19.528 10.6975 19.864 12.0322 19.864C16.4221 19.864 20 16.304 20 11.936C20 9.81603 19.1719 7.82403 17.6683 6.32804ZM12.0322 18.52C10.8422 18.52 9.67638 18.2 8.65528 17.6L8.41407 17.456L5.90553 18.112L6.57286 15.68L6.41206 15.432C5.75079 14.3817 5.39974 13.1674 5.39899 11.928C5.39899 8.29603 8.37387 5.33604 12.0241 5.33604C13.793 5.33604 15.4573 6.02404 16.7035 7.27203C17.3207 7.88312 17.8098 8.61006 18.1424 9.41069C18.475 10.2113 18.6446 11.0697 18.6412 11.936C18.6573 15.568 15.6824 18.52 12.0322 18.52ZM15.6663 13.592C15.4653 13.496 14.4844 13.016 14.3075 12.944C14.1226 12.88 13.994 12.848 13.8573 13.04C13.7206 13.24 13.3427 13.688 13.2302 13.816C13.1176 13.952 12.997 13.968 12.796 13.864C12.595 13.768 11.9518 13.552 11.196 12.88C10.601 12.352 10.207 11.704 10.0864 11.504C9.97387 11.304 10.0704 11.2 10.1749 11.096C10.2633 11.008 10.3759 10.864 10.4724 10.752C10.5688 10.64 10.609 10.552 10.6734 10.424C10.7377 10.288 10.7055 10.176 10.6573 10.08C10.609 9.98403 10.207 9.00803 10.0462 8.60803C9.88543 8.22403 9.71658 8.27203 9.59598 8.26403H9.21005C9.07337 8.26403 8.86432 8.31203 8.6794 8.51203C8.50251 8.71203 7.98794 9.19203 7.98794 10.168C7.98794 11.144 8.70352 12.088 8.8 12.216C8.89648 12.352 10.207 14.352 12.201 15.208C12.6754 15.416 13.0452 15.536 13.3347 15.624C13.809 15.776 14.2432 15.752 14.5889 15.704C14.9749 15.648 15.7709 15.224 15.9317 14.76C16.1005 14.296 16.1005 13.904 16.0442 13.816C15.9879 13.728 15.8673 13.688 15.6663 13.592Z" fill="currentColor"/>
</svg>

<svg width="24" height="24" viewBox="0 0 24 24" fill="none" xmlns="http://www.w3.org/2000/svg"><path d="M17.668 6.328A7.93 7.93 0 0012.032 4c-4.39 0-7.968 3.56-7.968 7.928 0 1.4.37 2.76 1.062 3.96L4 20l4.221-1.104a8.002 8.002 0 003.811.968c4.39 0 7.968-3.56 7.968-7.928 0-2.12-.828-4.112-2.332-5.608zM12.032 18.52c-1.19 0-2.356-.32-3.377-.92l-.24-.144-2.51.656.668-2.432-.16-.248a6.584 6.584 0 01-1.014-3.504c0-3.632 2.975-6.592 6.625-6.592 1.769 0 3.433.688 4.68 1.936a6.541 6.541 0 011.937 4.664c.016 3.632-2.959 6.584-6.609 6.584zm3.634-4.928c-.2-.096-1.182-.576-1.359-.648-.184-.064-.313-.096-.45.096-.136.2-.514.648-.627.776-.112.136-.233.152-.434.048-.201-.096-.844-.312-1.6-.984-.595-.528-.989-1.176-1.11-1.376-.112-.2-.016-.304.089-.408.088-.088.2-.232.297-.344.097-.112.137-.2.201-.328.065-.136.033-.248-.016-.344a65.268 65.268 0 01-.61-1.472c-.162-.384-.33-.336-.451-.344H9.21a.724.724 0 00-.53.248c-.177.2-.692.68-.692 1.656 0 .976.716 1.92.812 2.048.096.136 1.407 2.136 3.401 2.992.474.208.844.328 1.134.416.474.152.908.128 1.254.08.386-.056 1.182-.48 1.343-.944.168-.464.168-.856.112-.944-.056-.088-.177-.128-.378-.224z" fill="currentColor"/></svg>
